32x32/apps/codes.nora.gDiceRoller.svg

<svg xmlns="http://www.w3.org/2000/svg" width="32" height="32" version="1"><rect style="opacity:.2" width="28" height="28" x="2" y="3" rx="1.4" ry="1.4"/><rect style="fill:#ca1e1e" width="28" height="28" x="2" y="2" rx="1.4" ry="1.4"/><path style="opacity:.2" d="M8 6a3 3 0 0 0-3 3 3 3 0 0 0 3 3 3 3 0 0 0 3-3 3 3 0 0 0-3-3zm16 0a3 3 0 0 0-3 3 3 3 0 0 0 3 3 3 3 0 0 0 3-3 3 3 0 0 0-3-3zm-8 8a3 3 0 0 0-3 3 3 3 0 0 0 3 3 3 3 0 0 0 3-3 3 3 0 0 0-3-3zm-8 8a3 3 0 0 0-3 3 3 3 0 0 0 3 3 3 3 0 0 0 3-3 3 3 0 0 0-3-3zm16 0a3 3 0 0 0-3 3 3 3 0 0 0 3 3 3 3 0 0 0 3-3 3 3 0 0 0-3-3z"/><circle style="fill:#ffb0b0" cx="8" cy="8" r="3"/><circle style="fill:#ffb0b0" cx="16" cy="16" r="3"/><circle style="fill:#ffb0b0" cx="8" cy="24" r="3"/><circle style="fill:#ffb0b0" cx="24" cy="8" r="3"/><circle style="fill:#ffb0b0" cx="24" cy="24" r="3"/><path style="fill:#f4f4f7;opacity:.2" d="M3.4 2C2.625 2 2 2.625 2 3.4v1C2 3.625 2.625 3 3.4 3h25.2c.775 0 1.4.625 1.4 1.4v-1c0-.775-.625-1.4-1.4-1.4H3.4z"/><path style="opacity:.2;fill:#f4f4f7" d="M8 5a3 3 0 0 0-3 3 3 3 0 0 0 .043.486A3 3 0 0 1 8 6a3 3 0 0 1 2.957 2.514A3 3 0 0 0 11 8a3 3 0 0 0-3-3zm16 0a3 3 0 0 0-3 3 3 3 0 0 0 .043.486A3 3 0 0 1 24 6a3 3 0 0 1 2.957 2.514A3 3 0 0 0 27 8a3 3 0 0 0-3-3zm-8 8a3 3 0 0 0-3 3 3 3 0 0 0 .043.486A3 3 0 0 1 16 14a3 3 0 0 1 2.957 2.514A3 3 0 0 0 19 16a3 3 0 0 0-3-3zm-8 8a3 3 0 0 0-3 3 3 3 0 0 0 .043.486A3 3 0 0 1 8 22a3 3 0 0 1 2.957 2.514A3 3 0 0 0 11 24a3 3 0 0 0-3-3zm16 0a3 3 0 0 0-3 3 3 3 0 0 0 .043.486A3 3 0 0 1 24 22a3 3 0 0 1 2.957 2.514A3 3 0 0 0 27 24a3 3 0 0 0-3-3z"/></svg>

<svg xmlns="http://www.w3.org/2000/svg" width="32" height="32" version="1">
 <rect style="opacity:0.2" width="28" height="28" x="2" y="3" rx="1.4" ry="1.4"/>
 <rect style="fill:#ca1e1e" width="28" height="28" x="2" y="2" rx="1.4" ry="1.4"/>
 <path style="opacity:0.2" d="M 8,6 A 3,3 0 0 0 5,9 3,3 0 0 0 8,12 3,3 0 0 0 11,9 3,3 0 0 0 8,6 Z m 16,0 a 3,3 0 0 0 -3,3 3,3 0 0 0 3,3 3,3 0 0 0 3,-3 3,3 0 0 0 -3,-3 z m -8,8 a 3,3 0 0 0 -3,3 3,3 0 0 0 3,3 3,3 0 0 0 3,-3 3,3 0 0 0 -3,-3 z m -8,8 a 3,3 0 0 0 -3,3 3,3 0 0 0 3,3 3,3 0 0 0 3,-3 3,3 0 0 0 -3,-3 z m 16,0 a 3,3 0 0 0 -3,3 3,3 0 0 0 3,3 3,3 0 0 0 3,-3 3,3 0 0 0 -3,-3 z"/>
 <circle style="fill:#ffb0b0" cx="8" cy="8" r="3"/>
 <circle style="fill:#ffb0b0" cx="16" cy="16" r="3"/>
 <circle style="fill:#ffb0b0" cx="8" cy="24" r="3"/>
 <circle style="fill:#ffb0b0" cx="24" cy="8" r="3"/>
 <circle style="fill:#ffb0b0" cx="24" cy="24" r="3"/>
 <path style="fill:#f4f4f7;opacity:0.2" d="M 3.4003906 2 C 2.6247906 2 2 2.6247906 2 3.4003906 L 2 4.4003906 C 2 3.6247906 2.6247906 3 3.4003906 3 L 28.599609 3 C 29.375209 3 30 3.6247906 30 4.4003906 L 30 3.4003906 C 30 2.6247906 29.375209 2 28.599609 2 L 3.4003906 2 z"/>
 <path style="opacity:0.2;fill:#f4f4f7" d="M 8 5 A 3 3 0 0 0 5 8 A 3 3 0 0 0 5.0429688 8.4863281 A 3 3 0 0 1 8 6 A 3 3 0 0 1 10.957031 8.5136719 A 3 3 0 0 0 11 8 A 3 3 0 0 0 8 5 z M 24 5 A 3 3 0 0 0 21 8 A 3 3 0 0 0 21.042969 8.4863281 A 3 3 0 0 1 24 6 A 3 3 0 0 1 26.957031 8.5136719 A 3 3 0 0 0 27 8 A 3 3 0 0 0 24 5 z M 16 13 A 3 3 0 0 0 13 16 A 3 3 0 0 0 13.042969 16.486328 A 3 3 0 0 1 16 14 A 3 3 0 0 1 18.957031 16.513672 A 3 3 0 0 0 19 16 A 3 3 0 0 0 16 13 z M 8 21 A 3 3 0 0 0 5 24 A 3 3 0 0 0 5.0429688 24.486328 A 3 3 0 0 1 8 22 A 3 3 0 0 1 10.957031 24.513672 A 3 3 0 0 0 11 24 A 3 3 0 0 0 8 21 z M 24 21 A 3 3 0 0 0 21 24 A 3 3 0 0 0 21.042969 24.486328 A 3 3 0 0 1 24 22 A 3 3 0 0 1 26.957031 24.513672 A 3 3 0 0 0 27 24 A 3 3 0 0 0 24 21 z"/>
</svg>
